images/powered-by/bookingsync.svg

<svg height="141" viewBox="0 0 1149 141" width="1149" xmlns="http://www.w3.org/2000/svg"><g fill="none" fill-rule="evenodd"><g transform="translate(264)"><g fill="#4d4e5a"><path d="m.8 105.4v-104.9h40c19.1 0 32 7.2 32 27.3 0 9.5-3.1 17.1-11.9 21.4v.3c15.4 1.9 22 12.1 22 26.7 0 22-19.3 29.2-39 29.2zm28-63.7h3.1c7.4 0 15.1-1.3 15.1-10.2 0-9.6-8.7-10.2-16.3-10.2h-2zm0 42.8h3.6c8.3 0 22.3.4 22.3-11.1 0-12.7-13.9-11.4-23-11.4h-2.9z"/><path d="m172.8 70.2c0 22.5-19.1 35.2-40.9 35.2-21.7 0-40.9-12.6-40.9-35.2s19.1-35.4 40.9-35.4 40.9 12.8 40.9 35.4zm-56.4 0c0 8.4 5.7 14.8 15.5 14.8s15.5-6.5 15.5-14.8c0-8.1-5.7-15-15.5-15s-15.5 6.8-15.5 15z"/><path d="m260.5 70.2c0 22.5-19.1 35.2-40.9 35.2-21.7 0-40.9-12.6-40.9-35.2s19.1-35.4 40.9-35.4 40.9 12.8 40.9 35.4zm-56.4 0c0 8.4 5.7 14.8 15.5 14.8s15.5-6.5 15.5-14.8c0-8.1-5.7-15-15.5-15s-15.5 6.8-15.5 15z"/><path d="m295.5 63.1 26.1-28.2h33l-35.1 35 36.2 35.6h-33.8l-26.4-27v27h-24.1v-105h24.1z"/><path d="m388.1 13.8c0 7.2-6.1 13.2-13.5 13.2s-13.5-5.9-13.5-13.2 6.1-13.2 13.5-13.2 13.5 6 13.5 13.2zm-1.4 91.6h-24.1v-70.7h24.1z"/><path d="m426.7 45.5h.3c5.6-8 12.3-10.7 21.7-10.7 18.3 0 25.6 11.2 25.6 27.5v43.1h-24.1v-34.4c0-6.3 1.1-17.4-10.9-17.4-9.8 0-12.6 7.1-12.6 15.4v36.5h-24.1v-70.7h24.1z"/><path d="m564.7 99c0 29.3-14.3 41.1-39.4 41.1-15.6 0-36.6-8.2-38.7-26.4h27c.7 2.4 2.4 4.2 4.5 5.2 2.1 1.1 4.6 1.6 6.9 1.6 13 0 15.5-8.6 15.5-19.8v-3.2c-6.2 6.3-12.6 8.3-21.6 8.3-19.9 0-33.5-14.2-33.5-34.1 0-20.2 14-37.4 34.8-37.4 8 0 15.2 2.7 20 9.5h.3v-9h24.1v64.2zm-54.3-28.3c0 8.7 5.7 15.5 15.5 15.5s15.5-6.7 15.5-15.5c0-8.5-5.7-15.6-15.5-15.6s-15.5 7.2-15.5 15.6z"/></g><path d="m635.5 28.9c-4.9-4-11.1-6.6-17.6-6.6-4.9 0-11.4 2.8-11.4 8.3 0 5.8 7.2 8 11.8 9.5l6.8 2c14.2 4.1 25.2 11.1 25.2 27.2 0 9.9-2.4 20-10.6 26.8-8 6.6-18.7 9.4-29 9.4-12.9 0-25.5-4.2-35.9-11.3l11.4-20.8c6.6 5.7 14.5 10.3 23.6 10.3 6.2 0 12.9-3 12.9-10 0-7.2-10.4-9.8-16.1-11.3-16.7-4.6-27.6-8.8-27.6-28.1 0-20.2 14.8-33.3 35.2-33.3 10.3 0 22.9 3.2 31.9 8.2z" fill="#139bd7"/><path d="m651.5 35h27.8l18.2 37.1 17.8-37.1h27.4l-54.5 105.1h-27l23.2-43.8z" fill="#139bd7"/><path d="m772.2 45.5h.3c5.6-8 12.3-10.7 21.7-10.7 18.3 0 25.6 11.2 25.6 27.5v43.1h-24.1v-34.4c0-6.3 1.1-17.4-10.9-17.4-9.8 0-12.6 7.1-12.6 15.4v36.5h-24.1v-70.7h24.1z" fill="#139bd7"/><path d="m884.7 58.6c-3.6-2.6-7.8-4.6-12.5-4.6-9.3 0-16.6 7-16.6 16.1 0 9.5 7 16.3 17 16.3 4.2 0 8.9-1.7 12.1-4.5v19.9c-5.3 2.6-11.1 3.7-17 3.7-20.1 0-37-14.6-37-34.6 0-21.3 16.7-36 38-36 5.6 0 11.1 1.3 15.9 3.9v19.8z" fill="#139bd7"/></g><g fill="#139bd7" transform="translate(0 1)"><path d="m117.4 140c-14.6 0-29.1-4.2-40.7-11.7-12.9-8.3-22-20.4-26.6-34.9-.5-1.5.2-3 1.6-3.7.4-.2.9-.3 1.4-.3 1 0 1.9.5 2.5 1.3 14.6 20.4 36.8 32.2 61.1 32.2s46.5-11.7 61-32.2c.6-.9 1.6-1.3 2.6-1.3.5 0 .9.1 1.4.3 1.4.7 2.1 2.2 1.6 3.7-4.4 14.7-13.4 26.9-25.9 35.1-11.6 7.5-25.3 11.5-40 11.5z"/><path d="m94 51c-.5 0-.9-.1-1.4-.3l-44-21.6-44 21.6c-.4.2-.9.3-1.4.3-1 0-1.9-.5-2.5-1.3-.9-1.3-.7-3 .4-4l45.3-44.7c.6-.6 1.4-.9 2.2-.9s1.6.3 2.2.9l45.4 44.6c1.1 1.1 1.2 2.8.4 4-.7.9-1.7 1.4-2.6 1.4z"/><path d="m139.4 51c-1 0-1.9-.5-2.5-1.3-.9-1.3-.7-3 .4-4l45.3-44.7c.6-.6 1.4-.9 2.2-.9s1.6.3 2.2.9l45.4 44.6c1.1 1.1 1.2 2.8.4 4-.6.8-1.6 1.3-2.5 1.3-.5 0-.9-.1-1.4-.3l-44-21.6-44 21.6c-.6.3-1.1.4-1.5.4z"/></g></g></svg>

<?xml version="1.0" encoding="UTF-8" standalone="no"?>
<svg width="1149px" height="141px" viewBox="0 0 1149 141" version="1.1" xmlns="http://www.w3.org/2000/svg" xmlns:xlink="http://www.w3.org/1999/xlink">
    <!-- Generator: Sketch 40.3 (33839) - http://www.bohemiancoding.com/sketch -->
    <title>bookingsync</title>
    <desc>Created with Sketch.</desc>
    <defs></defs>
    <g id="Page-1" stroke="none" stroke-width="1" fill="none" fill-rule="evenodd">
        <g id="bookingsync">
            <g id="Group">
                <g transform="translate(264.000000, 0.000000)" id="Shape">
                    <path d="M0.8,105.4 L0.8,0.5 L40.8,0.5 C59.9,0.5 72.8,7.7 72.8,27.8 C72.8,37.3 69.7,44.9 60.9,49.2 L60.9,49.5 C76.3,51.4 82.9,61.6 82.9,76.2 C82.9,98.2 63.6,105.4 43.9,105.4 L0.8,105.4 L0.8,105.4 Z M28.8,41.7 L31.9,41.7 C39.3,41.7 47,40.4 47,31.5 C47,21.9 38.3,21.3 30.7,21.3 L28.7,21.3 L28.8,41.7 L28.8,41.7 L28.8,41.7 Z M28.8,84.5 L32.4,84.5 C40.7,84.5 54.7,84.9 54.7,73.4 C54.7,60.7 40.8,62 31.7,62 L28.8,62 L28.8,84.5 L28.8,84.5 L28.8,84.5 Z" fill="#4D4E5A"></path>
                    <path d="M172.8,70.2 C172.8,92.7 153.7,105.4 131.9,105.4 C110.2,105.4 91,92.8 91,70.2 C91,47.6 110.1,34.8 131.9,34.8 C153.7,34.8 172.8,47.6 172.8,70.2 L172.8,70.2 Z M116.4,70.2 C116.4,78.6 122.1,85 131.9,85 C141.7,85 147.4,78.5 147.4,70.2 C147.4,62.1 141.7,55.2 131.9,55.2 C122.1,55.2 116.4,62 116.4,70.2 L116.4,70.2 Z" fill="#4D4E5A"></path>
                    <path d="M260.5,70.2 C260.5,92.7 241.4,105.4 219.6,105.4 C197.9,105.4 178.7,92.8 178.7,70.2 C178.7,47.6 197.8,34.8 219.6,34.8 C241.4,34.8 260.5,47.6 260.5,70.2 L260.5,70.2 Z M204.1,70.2 C204.1,78.6 209.8,85 219.6,85 C229.4,85 235.1,78.5 235.1,70.2 C235.1,62.1 229.4,55.2 219.6,55.2 C209.8,55.2 204.1,62 204.1,70.2 L204.1,70.2 Z" fill="#4D4E5A"></path>
                    <polygon fill="#4D4E5A" points="295.5 63.1 321.6 34.9 354.6 34.9 319.5 69.9 355.7 105.5 321.9 105.5 295.5 78.5 295.5 105.5 271.4 105.5 271.4 0.5 295.5 0.5 295.5 63.1"></polygon>
                    <path d="M388.1,13.8 C388.1,21 382,27 374.6,27 C367.2,27 361.1,21.1 361.1,13.8 C361.1,6.5 367.2,0.6 374.6,0.6 C382,0.6 388.1,6.6 388.1,13.8 L388.1,13.8 Z M386.7,105.4 L362.6,105.4 L362.6,34.7 L386.7,34.7 L386.7,105.4 L386.7,105.4 Z" fill="#4D4E5A"></path>
                    <path d="M426.7,45.5 L427,45.5 C432.6,37.5 439.3,34.8 448.7,34.8 C467,34.8 474.3,46 474.3,62.3 L474.3,105.4 L450.2,105.4 L450.2,71 C450.2,64.7 451.3,53.6 439.3,53.6 C429.5,53.6 426.7,60.7 426.7,69 L426.7,105.5 L402.6,105.5 L402.6,34.8 L426.7,34.8 L426.7,45.5 L426.7,45.5 L426.7,45.5 Z" fill="#4D4E5A"></path>
                    <path d="M564.7,99 C564.7,128.3 550.4,140.1 525.3,140.1 C509.7,140.1 488.7,131.9 486.6,113.7 L513.6,113.7 C514.3,116.1 516,117.9 518.1,118.9 C520.2,120 522.7,120.5 525,120.5 C538,120.5 540.5,111.9 540.5,100.7 L540.5,97.5 C534.3,103.8 527.9,105.8 518.9,105.8 C499,105.8 485.4,91.6 485.4,71.7 C485.4,51.5 499.4,34.3 520.2,34.3 C528.2,34.3 535.4,37 540.2,43.8 L540.5,43.8 L540.5,34.8 L564.6,34.8 L564.6,99 L564.7,99 Z M510.4,70.7 C510.4,79.4 516.1,86.2 525.9,86.2 C535.7,86.2 541.4,79.5 541.4,70.7 C541.4,62.2 535.7,55.1 525.9,55.1 C516.1,55.1 510.4,62.3 510.4,70.7 L510.4,70.7 Z" fill="#4D4E5A"></path>
                    <path d="M635.5,28.9 C630.6,24.9 624.4,22.3 617.9,22.3 C613,22.3 606.5,25.1 606.5,30.6 C606.5,36.4 613.7,38.6 618.3,40.1 L625.1,42.1 C639.3,46.2 650.3,53.2 650.3,69.3 C650.3,79.2 647.9,89.3 639.7,96.1 C631.7,102.7 621,105.5 610.7,105.5 C597.8,105.5 585.2,101.3 574.8,94.2 L586.2,73.4 C592.8,79.1 600.7,83.7 609.8,83.7 C616,83.7 622.7,80.7 622.7,73.7 C622.7,66.5 612.3,63.9 606.6,62.4 C589.9,57.8 579,53.6 579,34.3 C579,14.1 593.8,1 614.2,1 C624.5,1 637.1,4.2 646.1,9.2 L635.5,28.9 L635.5,28.9 Z" fill="#139BD7"></path>
                    <polygon fill="#139BD7" points="651.5 35 679.3 35 697.5 72.1 715.3 35 742.7 35 688.2 140.1 661.2 140.1 684.4 96.3"></polygon>
                    <path d="M772.2,45.5 L772.5,45.5 C778.1,37.5 784.8,34.8 794.2,34.8 C812.5,34.8 819.8,46 819.8,62.3 L819.8,105.4 L795.7,105.4 L795.7,71 C795.7,64.7 796.8,53.6 784.8,53.6 C775,53.6 772.2,60.7 772.2,69 L772.2,105.5 L748.1,105.5 L748.1,34.8 L772.2,34.8 L772.2,45.5 L772.2,45.5 Z" fill="#139BD7"></path>
                    <path d="M884.7,58.6 C881.1,56 876.9,54 872.2,54 C862.9,54 855.6,61 855.6,70.1 C855.6,79.6 862.6,86.4 872.6,86.4 C876.8,86.4 881.5,84.7 884.7,81.9 L884.7,101.8 C879.4,104.4 873.6,105.5 867.7,105.5 C847.6,105.5 830.7,90.9 830.7,70.9 C830.7,49.6 847.4,34.9 868.7,34.9 C874.3,34.9 879.8,36.2 884.6,38.8 L884.6,58.6 L884.7,58.6 Z" fill="#139BD7"></path>
                </g>
                <g transform="translate(0.000000, 1.000000)" id="Shape" fill="#139BD7">
                    <path d="M117.4,140 C102.8,140 88.3,135.8 76.7,128.3 C63.8,120 54.7,107.9 50.1,93.4 C49.6,91.9 50.3,90.4 51.7,89.7 C52.1,89.5 52.6,89.4 53.1,89.4 C54.1,89.4 55,89.9 55.6,90.7 C70.2,111.1 92.4,122.9 116.7,122.9 C141,122.9 163.2,111.2 177.7,90.7 C178.3,89.8 179.3,89.4 180.3,89.4 C180.8,89.4 181.2,89.5 181.7,89.7 C183.1,90.4 183.8,91.9 183.3,93.4 C178.9,108.1 169.9,120.3 157.4,128.5 C145.8,136 132.1,140 117.4,140 L117.4,140 Z"></path>
                    <path d="M94,51 C93.5,51 93.1,50.9 92.6,50.7 L48.6,29.1 L4.6,50.7 C4.2,50.9 3.7,51 3.2,51 C2.2,51 1.3,50.5 0.7,49.7 C-0.2,48.4 -2.33146835e-14,46.7 1.1,45.7 L46.4,1 C47,0.4 47.8,0.1 48.6,0.1 C49.4,0.1 50.2,0.4 50.8,1 L96.2,45.6 C97.3,46.7 97.4,48.4 96.6,49.6 C95.9,50.5 94.9,51 94,51 L94,51 Z"></path>
                    <path d="M139.4,51 C138.4,51 137.5,50.5 136.9,49.7 C136,48.4 136.2,46.7 137.3,45.7 L182.6,1 C183.2,0.4 184,0.1 184.8,0.1 C185.6,0.1 186.4,0.4 187,1 L232.4,45.6 C233.5,46.7 233.6,48.4 232.8,49.6 C232.2,50.4 231.2,50.9 230.3,50.9 C229.8,50.9 229.4,50.8 228.9,50.6 L184.9,29 L140.9,50.6 C140.3,50.9 139.8,51 139.4,51 L139.4,51 Z"></path>
                </g>
            </g>
        </g>
    </g>
</svg>
